symbols/web/5k_plus/materialsymbolsoutlined/5k_plus_wght200gradN25_24px.svg

<svg xmlns="http://www.w3.org/2000/svg" height="24" width="24"><path d="M16.7 13.85h.75v-1.475h1.5v-.75h-1.5V10.15h-.75v1.475h-1.475v.75H16.7Zm-5.1.8h.825V12.3l2.3 2.35H15.9l-2.65-2.7 2.65-2.6h-1.15l-2.325 2.3v-2.3H11.6Zm-5.15 0h3q.3 0 .513-.212.212-.213.212-.538v-1.525q0-.325-.212-.538-.213-.212-.513-.212H7.3V10.2h2.875v-.85H6.45v3.025h2.9V13.8h-2.9Zm-.775 5.2q-.65 0-1.087-.437-.438-.438-.438-1.088V5.675q0-.65.438-1.088.437-.437 1.087-.437h12.65q.65 0 1.088.437.437.438.437 1.088v12.65q0 .65-.437 1.088-.438.437-1.088.437Zm0-.9h12.65q.225 0 .425-.2.2-.2.2-.425V5.675q0-.225-.2-.425-.2-.2-.425-.2H5.675q-.225 0-.425.2-.2.2-.2.425v12.65q0 .225.2.425.2.2.425.2ZM5.05 5.05v13.9-13.9Z"/></svg>

<svg xmlns="http://www.w3.org/2000/svg" height="24" width="24"><path d="M16.7 13.85H17.45V12.375H18.95V11.625H17.45V10.15H16.7V11.625H15.225V12.375H16.7ZM11.6 14.65H12.425V12.3L14.725 14.65H15.9L13.25 11.95L15.9 9.35H14.75L12.425 11.65V9.35H11.6ZM6.45 14.65H9.45Q9.75 14.65 9.963 14.438Q10.175 14.225 10.175 13.9V12.375Q10.175 12.05 9.963 11.837Q9.75 11.625 9.45 11.625H7.3V10.2H10.175V9.35H6.45V12.375H9.35V13.8H6.45ZM5.675 19.85Q5.025 19.85 4.588 19.413Q4.15 18.975 4.15 18.325V5.675Q4.15 5.025 4.588 4.587Q5.025 4.15 5.675 4.15H18.325Q18.975 4.15 19.413 4.587Q19.85 5.025 19.85 5.675V18.325Q19.85 18.975 19.413 19.413Q18.975 19.85 18.325 19.85ZM5.675 18.95H18.325Q18.55 18.95 18.75 18.75Q18.95 18.55 18.95 18.325V5.675Q18.95 5.45 18.75 5.25Q18.55 5.05 18.325 5.05H5.675Q5.45 5.05 5.25 5.25Q5.05 5.45 5.05 5.675V18.325Q5.05 18.55 5.25 18.75Q5.45 18.95 5.675 18.95ZM5.05 5.05Q5.05 5.05 5.05 5.225Q5.05 5.4 5.05 5.675V18.325Q5.05 18.6 5.05 18.775Q5.05 18.95 5.05 18.95Q5.05 18.95 5.05 18.775Q5.05 18.6 5.05 18.325V5.675Q5.05 5.4 5.05 5.225Q5.05 5.05 5.05 5.05Z"/></svg>
